static/logos/usertesting-wordmark-color.svg

<svg width="100" height="27" viewBox="0 0 100 27" fill="none" xmlns="http://www.w3.org/2000/svg">
<g clip-path="url(#clip0_1_467)">
<path fill-rule="evenodd" clip-rule="evenodd" d="M44.8184 17.4654V4.13724C44.8184 1.91152 43.0116 0.0916748 40.7728 0.0916748H4.46743C2.24172 0.0916748 0.421875 1.89843 0.421875 4.13724V17.4654C0.421875 19.691 2.22863 21.5109 4.46743 21.5109H30.7571L37.8794 26.2635L36.4522 21.5109H40.799C43.0116 21.4978 44.8314 19.691 44.8184 17.4654ZM8.09403 13.4852C8.3035 13.8518 8.57844 14.1398 8.93199 14.3231C9.28547 14.5196 9.66514 14.6112 10.0972 14.6112C10.5292 14.6112 10.922 14.5065 11.2755 14.31C11.629 14.1006 11.9171 13.8125 12.1134 13.4459C12.3229 13.0663 12.4276 12.6473 12.4276 12.1629V6.17966C12.4276 6.08801 12.4538 6.02255 12.5062 5.97018C12.5586 5.91781 12.624 5.89162 12.7157 5.89162H14.169C14.2606 5.89162 14.3392 5.91781 14.3915 5.97018C14.4177 5.99636 14.4439 6.03564 14.457 6.06182C14.4701 6.1011 14.4832 6.14038 14.4701 6.17966V12.1498C14.4701 13.1056 14.2737 13.9042 13.8809 14.5588C13.4881 15.2004 12.9644 15.6848 12.3098 15.9859C11.6552 16.3001 10.9089 16.4441 10.0972 16.4441C9.28547 16.4441 8.55225 16.287 7.88455 15.9728C7.21686 15.6586 6.69317 15.1742 6.30038 14.5327C5.90761 13.8911 5.71122 13.0925 5.71122 12.1367V6.17966C5.71122 6.1011 5.7374 6.03564 5.78977 5.98327C5.81595 5.95709 5.84214 5.9309 5.86833 5.91781C5.89451 5.90472 5.93379 5.89162 5.97307 5.89162H7.50488C7.59653 5.89162 7.67508 5.91781 7.71436 5.97018C7.75363 6.02255 7.77982 6.08801 7.77982 6.17966V12.1629C7.77982 12.6735 7.88455 13.1186 8.09403 13.4852ZM15.8448 14.5196C15.8448 14.5588 15.8578 14.6112 15.8709 14.6505C15.8971 14.7029 15.9233 14.7552 15.9495 14.8076C16.2768 15.3182 16.7219 15.724 17.2719 16.0121C17.8217 16.3001 18.4501 16.4441 19.144 16.4441C19.694 16.4441 20.2307 16.3394 20.7413 16.143C21.2519 15.9335 21.6578 15.6324 21.9851 15.2134C22.2994 14.8076 22.4565 14.31 22.4565 13.7209C22.4565 13.1056 22.2601 12.5426 21.8672 12.0582C21.4745 11.5606 20.8853 11.2071 20.0867 10.9584C19.982 10.9191 19.8903 10.8929 19.7987 10.8667C19.7071 10.8406 19.6285 10.8144 19.563 10.8013C19.1702 10.6965 18.8822 10.6049 18.6989 10.5263C18.5156 10.4478 18.3585 10.3561 18.2538 10.2514C18.1359 10.1336 18.0836 9.98957 18.0836 9.79319C18.0836 9.54444 18.1883 9.34805 18.3978 9.19095C18.6073 9.03378 18.8953 8.95523 19.2619 8.95523C19.6154 8.95523 19.9034 9.02069 20.1391 9.13851C20.3748 9.25641 20.5973 9.45279 20.8199 9.70154C20.8984 9.79319 20.9639 9.84555 21.0424 9.84555C21.0948 9.84555 21.1603 9.81937 21.2257 9.75391L22.0506 9.07305C22.1423 8.9945 22.1946 8.92904 22.1946 8.86358C22.1946 8.81121 22.1553 8.73266 22.0899 8.62792C21.7756 8.23516 21.3828 7.89476 20.9115 7.63292C20.4402 7.35799 19.8773 7.22707 19.2095 7.22707C18.5942 7.22707 18.0574 7.3449 17.5861 7.59365C17.1148 7.8424 16.7612 8.15661 16.4994 8.54937C16.2506 8.94213 16.1197 9.33496 16.1197 9.74082C16.1197 10.2383 16.2113 10.6704 16.4077 11.0238C16.6041 11.3773 16.8922 11.6784 17.2849 11.9273C17.6777 12.176 18.1883 12.3986 18.8298 12.595C19.1048 12.6735 19.2749 12.7259 19.3142 12.739C19.6285 12.8306 19.8642 12.9092 20.0082 12.9746C20.1653 13.0401 20.2831 13.1186 20.3617 13.2365C20.4533 13.3543 20.4926 13.5114 20.4926 13.7209C20.4926 13.9173 20.414 14.1006 20.27 14.2577C20.1129 14.4148 19.9296 14.5327 19.694 14.6243C19.4714 14.7029 19.2226 14.7552 18.9869 14.7552C18.5942 14.7552 18.2669 14.6636 18.005 14.4803C17.7432 14.2969 17.4944 14.0482 17.2719 13.734C17.1933 13.6292 17.1148 13.5769 17.0231 13.5769C16.9707 13.5769 16.9184 13.6031 16.866 13.6292L15.9626 14.2708C15.884 14.3493 15.8448 14.4279 15.8448 14.5196ZM30.6261 13.7733C30.7047 13.7733 30.7571 13.7994 30.7963 13.8649L31.5164 14.7421C31.5688 14.8207 31.608 14.8861 31.608 14.9516C31.608 15.0302 31.5688 15.0956 31.5033 15.1611C30.9796 15.6193 30.469 15.9466 29.9453 16.1561C29.4347 16.3525 28.8717 16.4572 28.2826 16.4572C27.484 16.4572 26.7246 16.2477 26.0176 15.8419C25.3106 15.4229 24.7476 14.8731 24.3286 14.166C23.9097 13.459 23.7002 12.6997 23.7002 11.8749C23.7002 11.0369 23.8966 10.2645 24.2894 9.57062C24.6822 8.86358 25.219 8.31371 25.9128 7.89476C26.6067 7.47582 27.3792 7.27944 28.2302 7.27944C28.9241 7.27944 29.6049 7.44963 30.2857 7.79003C30.9665 8.13042 31.5295 8.64102 31.9746 9.33496C32.4198 10.0288 32.6424 10.8798 32.6424 11.888C32.6424 12.1106 32.6162 12.2808 32.5638 12.3855C32.5114 12.4902 32.4328 12.5557 32.3543 12.5688C32.2626 12.595 32.1186 12.6081 31.9353 12.595H25.651C25.7426 13.0139 25.9259 13.3805 26.1747 13.6947C26.4234 14.0089 26.7376 14.2577 27.1042 14.4279C27.4709 14.5981 27.8636 14.6898 28.2826 14.6898C28.6099 14.6898 28.8848 14.6505 29.1336 14.585C29.3692 14.5196 29.5656 14.441 29.7227 14.3493C29.9061 14.2446 30.0763 14.1267 30.2334 13.9958L30.4428 13.8387C30.5083 13.7863 30.5738 13.7733 30.6261 13.7733ZM27.1566 9.23023C26.8162 9.40042 26.5282 9.63608 26.2794 9.92411C26.0307 10.2121 25.8474 10.5394 25.7165 10.906H30.7047C30.4952 10.33 30.1679 9.85865 29.7358 9.50516C29.3038 9.15161 28.7932 8.98141 28.2302 8.98141C27.8636 8.96832 27.4971 9.05996 27.1566 9.23023ZM35.5489 7.3449H34.5407C34.3574 7.3449 34.2658 7.44963 34.2658 7.64601V15.999C34.2658 16.1954 34.3574 16.287 34.5407 16.287H35.9809C36.1773 16.287 36.269 16.1954 36.269 15.999V11.1024C36.269 10.6573 36.3475 10.2907 36.5177 9.98957C36.6879 9.68845 36.8974 9.46588 37.1723 9.32187C37.4342 9.17779 37.7222 9.09924 38.0234 9.09924C38.3245 9.09924 38.5994 9.15161 38.8613 9.25641C39.1231 9.37424 39.3719 9.50516 39.6075 9.66226C39.6861 9.71463 39.7646 9.75391 39.8301 9.75391C39.9086 9.75391 39.961 9.71463 40.0265 9.63608L40.6811 8.70648C40.7335 8.64101 40.7597 8.57555 40.7597 8.51009C40.7597 8.41845 40.7073 8.3268 40.6026 8.22207C40.3407 7.9995 40.0003 7.77694 39.5813 7.56746C39.1755 7.35799 38.7303 7.25325 38.2459 7.25325C37.8008 7.25325 37.3949 7.35799 37.0283 7.56746C36.6617 7.77694 36.3606 8.06496 36.1249 8.44463L35.9809 7.6722C35.9547 7.52819 35.9155 7.43654 35.8369 7.39726C35.7715 7.35799 35.6798 7.3449 35.5489 7.3449Z" fill="#3B5BF4"/>
<path d="M47.3974 5.8916H54.8863C55.0696 5.8916 55.1612 5.98325 55.1612 6.16654V7.48889C55.1612 7.67218 55.0696 7.77692 54.8863 7.77692H52.1238V16.012C52.1238 16.1953 52.0321 16.287 51.8489 16.287H50.3432C50.1599 16.287 50.0683 16.1953 50.0683 16.012V7.76383H47.3843C47.201 7.76383 47.1094 7.67218 47.1094 7.4758V6.16654C47.1225 5.98325 47.2141 5.8916 47.3974 5.8916Z" fill="#3B5BF4"/>
<path d="M61.8556 13.7732C61.9342 13.7732 61.9865 13.7994 62.0258 13.8649L62.7459 14.7421C62.7982 14.8207 62.8375 14.8861 62.8375 14.9516C62.8375 15.0301 62.7982 15.0956 62.7328 15.1611C62.2091 15.6193 61.6985 15.9466 61.1748 16.1561C60.6511 16.3655 60.1012 16.4572 59.5121 16.4572C58.7134 16.4572 57.954 16.2477 57.2471 15.8419C56.5401 15.4229 55.9771 14.873 55.5582 14.1661C55.1392 13.459 54.9297 12.6997 54.9297 11.8749C54.9297 11.0369 55.1261 10.2645 55.5189 9.5706C55.9117 8.86363 56.4484 8.3137 57.1423 7.89475C57.8362 7.4758 58.6087 7.27942 59.4597 7.27942C60.1536 7.27942 60.8475 7.44962 61.5152 7.79001C62.196 8.13041 62.759 8.641 63.2041 9.33495C63.6493 10.0288 63.8719 10.8798 63.8719 11.888C63.8719 12.1105 63.8457 12.2807 63.7933 12.3855C63.7409 12.4902 63.6624 12.5557 63.5838 12.5688C63.4922 12.5949 63.3482 12.608 63.1648 12.608H56.8936C56.9852 13.027 57.1685 13.3936 57.4173 13.7078C57.666 14.0221 57.9802 14.2708 58.3469 14.441C58.7134 14.6112 59.1062 14.7028 59.5382 14.7028C59.8655 14.7028 60.1405 14.6636 60.3892 14.5981C60.6249 14.5326 60.8213 14.4541 60.9784 14.3624C61.1617 14.2577 61.3319 14.1399 61.489 14.009L61.6985 13.8518C61.7247 13.7863 61.7901 13.7732 61.8556 13.7732ZM58.373 9.23021C58.0326 9.40041 57.7446 9.63606 57.4958 9.92409C57.2471 10.2121 57.0638 10.5394 56.9328 10.906H61.9342C61.7247 10.3299 61.3974 9.85863 60.9653 9.50514C60.5332 9.15166 60.0226 8.98146 59.4466 8.98146C59.08 8.96837 58.7003 9.06001 58.373 9.23021Z" fill="#3B5BF4"/>
<path d="M64.4715 14.6506C64.4584 14.6113 64.4453 14.5589 64.4453 14.5196C64.4453 14.428 64.4846 14.3494 64.5631 14.2709L65.4534 13.5901C65.4927 13.5508 65.5451 13.5246 65.6106 13.5377C65.7022 13.5377 65.7939 13.5901 65.859 13.6948C66.082 14.009 66.3307 14.2578 66.5926 14.4411C66.8544 14.6244 67.1814 14.716 67.5741 14.716C67.8235 14.716 68.059 14.6767 68.2814 14.5851C68.5169 14.4935 68.7136 14.3756 68.8577 14.2185C69.0018 14.0614 69.08 13.8781 69.08 13.6817C69.08 13.4723 69.0406 13.3152 68.9491 13.1973C68.8577 13.0795 68.7399 13.001 68.5958 12.9355C68.4518 12.87 68.2162 12.7914 67.9018 12.6998C67.8491 12.6867 67.6925 12.6474 67.4175 12.5558C66.7754 12.3594 66.2649 12.1368 65.8722 11.8881C65.4796 11.6393 65.1916 11.3382 64.9952 10.9847C64.7988 10.6312 64.7072 10.1992 64.7072 9.70162C64.7072 9.29576 64.8381 8.903 65.0868 8.51023C65.3356 8.11747 65.7022 7.80326 66.1735 7.55451C66.6445 7.30569 67.1814 7.18787 67.7972 7.18787C68.4518 7.18787 69.0274 7.31879 69.4991 7.59379C69.9702 7.86872 70.3629 8.19602 70.6774 8.58879C70.7557 8.68043 70.782 8.75898 70.782 8.82445C70.782 8.88991 70.7294 8.96846 70.6379 9.03392L69.8129 9.71471C69.7347 9.76708 69.682 9.80635 69.6301 9.80635C69.5643 9.80635 69.486 9.75398 69.407 9.66234C69.1978 9.41359 68.9623 9.2303 68.7268 9.09938C68.4906 8.98155 68.1899 8.91609 67.8491 8.91609C67.4827 8.91609 67.1945 8.99464 66.9853 9.15175C66.7754 9.30885 66.6708 9.50523 66.6708 9.75398C66.6708 9.95037 66.7235 10.0944 66.8412 10.2123C66.959 10.3301 67.1031 10.4217 67.2866 10.4872C67.4695 10.5658 67.7708 10.6443 68.1504 10.7621C68.2287 10.7752 68.3077 10.8014 68.386 10.8276C68.4781 10.8538 68.5695 10.88 68.6741 10.9192C69.4728 11.1549 70.0623 11.5215 70.4551 12.019C70.8478 12.5165 71.0439 13.0664 71.0439 13.6817C71.0439 14.2578 70.8866 14.7553 70.5728 15.1742C70.2583 15.5802 69.8393 15.8944 69.3287 16.1039C68.8182 16.3133 68.2814 16.4181 67.7314 16.405C67.0379 16.405 66.409 16.261 65.859 15.9729C65.3094 15.6849 64.8774 15.279 64.537 14.7684C64.5239 14.7553 64.4977 14.7029 64.4715 14.6506Z" fill="#3B5BF4"/>
<path d="M75.8538 7.41042C76.0498 7.41042 76.1544 7.51516 76.1544 7.71154V8.86371C76.1544 8.95536 76.1281 9.03391 76.063 9.08628C75.9972 9.13864 75.9189 9.16483 75.8275 9.16483H74.8189V13.5246C74.8189 13.8388 74.8715 14.0876 74.9893 14.284C75.1071 14.4673 75.3038 14.572 75.5788 14.5851L75.8011 14.5982C75.9584 14.6113 76.063 14.6506 76.1025 14.7291C76.1413 14.8077 76.1676 14.8993 76.1544 14.9909V15.9859C76.1544 16.2217 75.9715 16.3395 75.6176 16.3395C75.0683 16.3395 74.5834 16.2348 74.1643 16.0253C73.7327 15.8158 73.4051 15.5146 73.1696 15.1219C72.934 14.7291 72.8163 14.2709 72.8163 13.7472V9.17792H72.0044C71.9255 9.17792 71.8472 9.15174 71.7946 9.09937C71.7294 9.047 71.7031 8.96845 71.7031 8.8768V7.73772C71.7031 7.63299 71.7294 7.55443 71.7946 7.48897C71.8472 7.4366 71.9255 7.41042 72.0044 7.41042H72.8163V5.94409C72.8163 5.83935 72.8294 5.77388 72.8683 5.72151C72.9077 5.66914 72.986 5.64296 73.0913 5.60368L74.5183 5.18472C74.5446 5.17163 74.5702 5.17163 74.5965 5.17163C74.6229 5.17163 74.6623 5.18472 74.688 5.19782C74.7143 5.21091 74.7406 5.23709 74.7538 5.26328C74.7933 5.31565 74.8064 5.3942 74.8064 5.48585V7.39733L75.8538 7.41042Z" fill="#3B5BF4"/>
<path d="M78.065 4.15039H79.2822C79.544 4.15039 79.6749 4.29441 79.6749 4.59554V5.82623C79.6749 5.97024 79.6493 6.07498 79.5835 6.12735C79.5183 6.17972 79.4131 6.219 79.2822 6.219H78.065C77.7769 6.219 77.6328 6.08807 77.6328 5.82623V4.59554C77.6328 4.29441 77.7769 4.15039 78.065 4.15039ZM77.7769 7.42349C77.8295 7.37112 77.8947 7.34494 77.9729 7.34494H79.4525C79.5315 7.34494 79.5966 7.37112 79.6493 7.42349C79.7012 7.47586 79.7275 7.54132 79.7275 7.63296V15.999C79.7275 16.1824 79.6361 16.2871 79.4525 16.2871H77.9729C77.79 16.2871 77.6986 16.1955 77.6986 15.999V7.63296C77.6986 7.54132 77.7243 7.47586 77.7769 7.42349Z" fill="#3B5BF4"/>
<path d="M83.1795 16.2085C83.1006 16.2609 82.996 16.2871 82.9045 16.2871H81.6216C81.4249 16.2871 81.3203 16.1823 81.3203 15.986V7.63294C81.3203 7.43656 81.4249 7.33182 81.6216 7.33182H82.5637C82.6558 7.33182 82.7604 7.37109 82.8256 7.43656C82.9045 7.50202 82.9565 7.59366 82.9828 7.6853L83.1006 8.69346C83.4414 8.20905 83.8473 7.8555 84.3315 7.61984C84.8157 7.38419 85.3394 7.26636 85.8762 7.26636C86.4131 7.26636 86.9368 7.39728 87.4473 7.67221C87.9578 7.94715 88.3769 8.36616 88.7177 8.92912C89.0447 9.49208 89.215 10.1991 89.215 11.037V15.9729C89.215 16.1693 89.1236 16.2609 88.94 16.2609H87.5394C87.3427 16.2609 87.2381 16.1693 87.2381 15.9729V11.1025C87.2381 10.7621 87.1591 10.4478 86.9894 10.1467C86.819 9.84557 86.5835 9.59682 86.2953 9.41353C85.994 9.23024 85.667 9.13859 85.3006 9.13859C84.9861 9.13859 84.6716 9.21715 84.371 9.38734C84.0565 9.55754 83.8078 9.7932 83.6111 10.1074C83.4151 10.4216 83.3104 10.7883 83.3104 11.1941V15.9598C83.2973 16.0776 83.2578 16.1431 83.1795 16.2085Z" fill="#3B5BF4"/>
<path d="M98.9348 17.125C98.542 17.832 98.0183 18.3688 97.3374 18.7354C96.6565 19.102 95.871 19.2721 94.994 19.2721C94.4045 19.2721 93.8289 19.1674 93.2657 18.971C92.6894 18.7746 92.2052 18.4997 91.7993 18.1593C91.721 18.0938 91.6815 18.0283 91.6815 17.9498C91.6815 17.8974 91.7078 17.8319 91.773 17.7403L92.3624 16.8893C92.4276 16.7977 92.5065 16.7453 92.6111 16.7453C92.6894 16.7453 92.7683 16.7715 92.8598 16.8369C93.4749 17.269 94.2348 17.4785 95.1644 17.4785C95.6355 17.4785 96.0545 17.3737 96.421 17.1643C96.7874 16.9679 97.0887 16.6668 97.2855 16.3002C97.4947 15.9336 97.5993 15.5146 97.5993 15.0433V15.0171C97.2065 15.436 96.7874 15.7503 96.3558 15.9598C95.9236 16.1693 95.4131 16.274 94.8368 16.274C94.0644 16.274 93.3315 16.0907 92.6637 15.6979C91.9828 15.3182 91.446 14.7814 91.0401 14.1006C90.6341 13.4198 90.4249 12.6473 90.4381 11.7833C90.4381 10.9716 90.6341 10.2121 91.0401 9.51827C91.446 8.82438 91.9828 8.26142 92.6637 7.84248C93.344 7.42346 94.0644 7.21399 94.8368 7.21399C95.9499 7.21399 96.9052 7.64603 97.7039 8.49708L97.8216 7.67221C97.8348 7.54129 97.8743 7.44965 97.9269 7.39728C97.9789 7.34491 98.0578 7.31873 98.1624 7.31873H99.2881C99.4585 7.31873 99.5499 7.42346 99.5499 7.61984V14.4934C99.5111 15.5539 99.3144 16.418 98.9348 17.125ZM97.2855 10.4348C97.0493 10.0158 96.7355 9.67537 96.3295 9.42662C95.9236 9.17787 95.4782 9.04695 94.9677 9.04695C94.444 9.04695 93.9861 9.17787 93.5802 9.42662C93.1743 9.67537 92.873 10.0158 92.6374 10.4479C92.4151 10.8799 92.2966 11.3381 92.2966 11.8487C92.2966 12.3855 92.4151 12.8568 92.6506 13.2758C92.8861 13.6948 93.2131 14.0221 93.619 14.2577C94.0249 14.4934 94.4835 14.6112 94.9808 14.6112C95.4782 14.6112 95.9236 14.4934 96.3164 14.2446C96.7091 13.9959 97.0236 13.6555 97.2591 13.2366C97.4815 12.8045 97.5993 12.3462 97.5993 11.8487C97.6256 11.325 97.5078 10.8537 97.2855 10.4348Z" fill="#3B5BF4"/>
</g>
<defs>
<clipPath id="clip0_1_467">
<rect width="100" height="26.3158" fill="white"/>
</clipPath>
</defs>
</svg>

<svg xmlns="http://www.w3.org/2000/svg" width="237.037" height="64" fill="none" viewBox="0 0 100 27"><g fill="#3B5BF4" clip-path="url(#a)"><path fill-rule="evenodd" d="M44.818 17.465V4.137A4.048 4.048 0 0 0 40.773.092H4.467A4.048 4.048 0 0 0 .422 4.137v13.328a4.048 4.048 0 0 0 4.045 4.046h26.29l7.122 4.753-1.427-4.753H40.8c2.213-.013 4.032-1.82 4.02-4.046Zm-36.724-3.98c.21.367.484.655.838.838a2.33 2.33 0 0 0 1.165.288c.432 0 .825-.104 1.178-.301.354-.21.642-.498.838-.864.21-.38.315-.799.315-1.283V6.18c0-.092.026-.157.078-.21a.276.276 0 0 1 .21-.078h1.453c.092 0 .17.026.223.078a.398.398 0 0 1 .065.092c.013.04.026.078.013.118v5.97c0 .956-.196 1.754-.59 2.409-.392.641-.916 1.126-1.57 1.427-.655.314-1.401.458-2.213.458s-1.545-.157-2.212-.471a3.657 3.657 0 0 1-1.585-1.44c-.392-.642-.589-1.44-.589-2.396V6.18c0-.079.026-.144.079-.197.026-.026.052-.052.078-.065a.247.247 0 0 1 .105-.026h1.532c.092 0 .17.026.21.078.039.053.065.118.065.21v5.983c0 .51.105.956.314 1.322Zm7.75 1.035c0 .039.014.091.027.13l.079.158c.327.51.772.916 1.322 1.204.55.288 1.178.432 1.872.432.55 0 1.087-.105 1.597-.301.51-.21.917-.51 1.244-.93.314-.405.471-.903.471-1.492 0-.615-.196-1.178-.589-1.663-.393-.497-.982-.85-1.78-1.1-.105-.039-.197-.065-.288-.091-.092-.026-.17-.053-.236-.066a6.905 6.905 0 0 1-.864-.275 1.438 1.438 0 0 1-.445-.275c-.118-.117-.17-.261-.17-.458 0-.249.104-.445.314-.602.21-.157.497-.236.864-.236.353 0 .641.066.877.184.236.117.458.314.68.563.08.091.145.144.223.144.053 0 .118-.027.184-.092l.825-.68c.091-.08.144-.145.144-.21 0-.053-.04-.131-.105-.236a3.975 3.975 0 0 0-1.178-.995c-.472-.275-1.035-.406-1.703-.406-.615 0-1.152.118-1.623.367a2.876 2.876 0 0 0-1.087.955c-.248.393-.38.786-.38 1.192 0 .497.092.93.289 1.283.196.353.484.654.877.903s.903.472 1.545.668c.275.079.445.13.484.144.314.092.55.17.694.236.157.065.275.144.354.261.091.118.13.275.13.485 0 .196-.078.38-.222.537-.157.157-.34.275-.576.366-.223.079-.471.131-.707.131-.393 0-.72-.091-.982-.275a3.063 3.063 0 0 1-.733-.746c-.079-.105-.157-.157-.249-.157-.052 0-.105.026-.157.052l-.903.642c-.079.078-.118.157-.118.249Zm14.782-.747c.079 0 .131.026.17.092l.72.877c.053.079.092.144.092.21 0 .078-.04.144-.105.21-.523.457-1.034.785-1.558.994a4.63 4.63 0 0 1-1.662.301c-.799 0-1.558-.21-2.265-.615a4.709 4.709 0 0 1-1.69-1.676 4.405 4.405 0 0 1-.628-2.291c0-.838.197-1.61.59-2.304a4.434 4.434 0 0 1 1.623-1.676c.694-.42 1.466-.616 2.317-.616.694 0 1.375.17 2.056.511.68.34 1.243.851 1.689 1.545.445.694.667 1.545.667 2.553 0 .223-.026.393-.078.498-.053.104-.131.17-.21.183-.091.026-.235.04-.419.026h-6.284c.092.419.275.785.524 1.1.248.314.563.563.93.733.366.17.759.262 1.178.262.327 0 .602-.04.85-.105a2.5 2.5 0 0 0 .59-.236c.183-.104.353-.222.51-.353l.21-.157a.286.286 0 0 1 .183-.066Zm-3.47-4.543c-.34.17-.628.406-.877.694a3.048 3.048 0 0 0-.563.982h4.989a3.18 3.18 0 0 0-.97-1.4 2.318 2.318 0 0 0-1.505-.525 2.228 2.228 0 0 0-1.073.25Zm8.393-1.885H34.54c-.184 0-.275.105-.275.301v8.353c0 .196.091.288.275.288h1.44c.196 0 .288-.092.288-.288v-4.897c0-.445.078-.811.249-1.112.17-.302.38-.524.654-.668.262-.144.55-.223.851-.223.301 0 .576.053.838.157.262.118.51.25.747.406a.449.449 0 0 0 .222.092c.079 0 .131-.04.197-.118l.654-.93a.314.314 0 0 0 .079-.196c0-.092-.053-.183-.157-.288a5.108 5.108 0 0 0-1.022-.655 2.868 2.868 0 0 0-1.335-.314 2.41 2.41 0 0 0-1.218.314c-.366.21-.667.498-.903.878l-.144-.773c-.026-.144-.066-.235-.144-.275-.066-.039-.157-.052-.288-.052Z" clip-rule="evenodd"/><path d="M47.397 5.892h7.49c.183 0 .274.091.274.275v1.322c0 .183-.091.288-.275.288h-2.762v8.235c0 .183-.092.275-.275.275h-1.506c-.183 0-.275-.092-.275-.275V7.764h-2.684c-.183 0-.275-.092-.275-.288v-1.31c.014-.183.105-.274.288-.274ZM61.856 13.773c.078 0 .13.026.17.092l.72.877c.052.079.091.144.091.21 0 .078-.039.144-.104.21-.524.457-1.034.785-1.558.994a4.412 4.412 0 0 1-1.663.301c-.799 0-1.558-.21-2.265-.615a4.71 4.71 0 0 1-1.689-1.676 4.405 4.405 0 0 1-.628-2.291c0-.838.196-1.61.589-2.304a4.433 4.433 0 0 1 1.623-1.676c.694-.42 1.467-.616 2.318-.616.694 0 1.387.17 2.055.511.681.34 1.244.851 1.69 1.545.444.694.667 1.545.667 2.553 0 .223-.026.393-.079.498-.052.104-.13.17-.21.183-.09.026-.235.039-.418.039h-6.271c.091.419.275.786.523 1.1.249.314.563.563.93.733.366.17.76.262 1.191.262.328 0 .603-.04.851-.105.236-.065.432-.144.59-.236.183-.104.353-.222.51-.353l.21-.157c.026-.066.091-.079.157-.079ZM58.373 9.23c-.34.17-.628.406-.877.694a3.05 3.05 0 0 0-.563.982h5.001a3.179 3.179 0 0 0-.969-1.4c-.432-.354-.942-.525-1.518-.525a2.195 2.195 0 0 0-1.074.25ZM64.472 14.65a.465.465 0 0 1-.027-.13c0-.092.04-.17.118-.25l.89-.68a.168.168 0 0 1 .158-.052c.091 0 .183.052.248.157.223.314.472.563.734.746.261.183.588.275.981.275.25 0 .485-.04.707-.13.236-.093.433-.21.577-.367a.787.787 0 0 0 .222-.537c0-.21-.04-.367-.13-.485a.892.892 0 0 0-.354-.261 5.778 5.778 0 0 0-.694-.236 6.287 6.287 0 0 1-.484-.144c-.643-.197-1.153-.42-1.546-.668a2.51 2.51 0 0 1-.877-.903c-.196-.354-.288-.786-.288-1.283 0-.406.131-.799.38-1.192.249-.393.615-.707 1.087-.955.47-.25 1.007-.367 1.623-.367.655 0 1.23.13 1.702.406.471.275.864.602 1.178.995.079.091.105.17.105.235 0 .066-.053.144-.144.21l-.825.68c-.078.053-.131.092-.183.092-.066 0-.144-.052-.223-.144a2.431 2.431 0 0 0-.68-.563 1.977 1.977 0 0 0-.878-.183c-.366 0-.654.079-.864.236a.716.716 0 0 0-.314.602c0 .196.052.34.17.458.118.118.262.21.446.275.182.079.484.157.863.275.079.013.158.04.236.066.092.026.184.052.288.091.799.236 1.388.602 1.781 1.1a2.61 2.61 0 0 1 .589 1.663c0 .576-.157 1.073-.471 1.492-.315.406-.734.72-1.244.93a3.94 3.94 0 0 1-1.598.301c-.693 0-1.322-.144-1.872-.432a3.548 3.548 0 0 1-1.322-1.205c-.013-.013-.04-.065-.066-.117ZM75.854 7.41c.196 0 .3.105.3.302v1.152c0 .091-.026.17-.091.222a.366.366 0 0 1-.236.079H74.82v4.36c0 .314.052.563.17.759.118.183.315.288.59.301l.222.013c.157.013.262.053.302.131.038.079.065.17.051.262v.995c0 .236-.182.354-.536.354-.55 0-1.035-.105-1.454-.315a2.3 2.3 0 0 1-.994-.903c-.236-.393-.354-.851-.354-1.375v-4.57h-.812a.298.298 0 0 1-.21-.078c-.065-.052-.09-.13-.09-.222v-1.14c0-.104.025-.183.09-.248a.298.298 0 0 1 .21-.079h.812V5.944c0-.105.013-.17.052-.222.04-.053.118-.079.223-.118l1.427-.42c.027-.012.052-.012.079-.012.026 0 .065.013.091.026.026.013.053.04.066.065.04.053.052.131.052.223v1.911l1.048.013ZM78.065 4.15h1.217c.262 0 .393.144.393.446v1.23c0 .144-.026.249-.091.301a.485.485 0 0 1-.302.092h-1.217c-.288 0-.432-.13-.432-.393v-1.23c0-.302.144-.446.432-.446Zm-.288 3.273a.266.266 0 0 1 .196-.078h1.48a.267.267 0 0 1 .275.288v8.366c0 .183-.092.288-.275.288h-1.48c-.183 0-.274-.091-.274-.288V7.633c0-.092.025-.157.078-.21ZM83.18 16.209a.516.516 0 0 1-.276.078h-1.282c-.197 0-.302-.105-.302-.301V7.633c0-.196.105-.301.302-.301h.942c.092 0 .196.04.262.105.079.065.13.157.157.248l.118 1.008c.34-.484.746-.837 1.23-1.073a3.512 3.512 0 0 1 1.545-.354c.537 0 1.06.131 1.571.406.51.275.93.694 1.27 1.257.328.563.498 1.27.498 2.108v4.936c0 .196-.091.288-.275.288h-1.4c-.197 0-.302-.092-.302-.288v-4.87a1.9 1.9 0 0 0-.249-.956 2.071 2.071 0 0 0-.694-.733 1.866 1.866 0 0 0-.994-.275c-.315 0-.63.078-.93.248a2.025 2.025 0 0 0-1.06 1.807v4.766a.336.336 0 0 1-.132.248ZM98.935 17.125c-.393.707-.917 1.244-1.598 1.61-.68.367-1.466.537-2.343.537-.59 0-1.165-.105-1.728-.301a4.524 4.524 0 0 1-1.467-.812c-.078-.065-.118-.13-.118-.21 0-.052.027-.117.092-.209l.59-.85c.065-.092.144-.145.248-.145.078 0 .157.026.249.092.615.432 1.375.642 2.304.642.471 0 .89-.105 1.257-.315.366-.196.668-.497.864-.864a2.49 2.49 0 0 0 .314-1.257v-.026a4.292 4.292 0 0 1-1.243.943c-.432.21-.943.314-1.52.314a4.22 4.22 0 0 1-2.172-.576A4.32 4.32 0 0 1 91.04 14.1a4.312 4.312 0 0 1-.602-2.318c0-.811.196-1.57.602-2.265a4.74 4.74 0 0 1 1.624-1.676c.68-.419 1.4-.628 2.173-.628 1.113 0 2.068.432 2.867 1.283l.118-.825c.013-.13.052-.222.105-.275.052-.052.13-.078.235-.078h1.126c.17 0 .262.104.262.3v6.874c-.039 1.06-.236 1.925-.615 2.632Zm-1.65-6.69a2.722 2.722 0 0 0-.956-1.008 2.538 2.538 0 0 0-1.361-.38c-.524 0-.982.13-1.388.38-.406.248-.707.589-.943 1.02-.222.433-.34.891-.34 1.402 0 .537.118 1.008.354 1.427.235.419.562.746.968.982.406.235.865.353 1.362.353.497 0 .943-.118 1.335-.366a2.79 2.79 0 0 0 .943-1.008c.222-.432.34-.89.34-1.388a2.683 2.683 0 0 0-.314-1.414Z"/></g><defs><clipPath id="a"><path fill="#fff" d="M0 0h100v26.316H0z"/></clipPath></defs></svg>
